public/assets/images/instagram_sprite_footer.svg

<svg width="25" height="50" viewBox="0 0 25 50" fill="none" xmlns="http://www.w3.org/2000/svg">
<g clip-path="url(#clip0_2072_138)">
<path d="M24.94 7.35C24.9127 6.32494 24.7167 5.31138 24.36 4.35C24.0409 3.51379 23.5504 2.75355 22.9201 2.11808C22.2898 1.48261 21.5336 0.985955 20.7 0.66C19.7393 0.300795 18.7253 0.104758 17.7 0.08C16.32 0 15.9 0 12.5 0C9.1 0 8.69 0 7.35 0.07C6.32494 0.09734 5.31138 0.293295 4.35 0.65C3.50322 0.963446 2.73527 1.45835 2.1 2.1C1.46752 2.72525 0.976483 3.47886 0.66 4.31C0.300795 5.27068 0.104758 6.28466 0.08 7.31C0 8.68 0 9.11 0 12.5C0 15.89 0 16.32 0.07 17.65C0.0986013 18.6749 0.294517 19.6883 0.65 20.65C0.963736 21.4966 1.4586 22.2645 2.1 22.9C2.72467 23.5356 3.47824 24.03 4.31 24.35C5.27201 24.7045 6.2852 24.9003 7.31 24.93C8.68 25 9.11 25 12.5 25C15.89 25 16.32 25 17.65 24.93C18.6749 24.9014 19.6883 24.7055 20.65 24.35C21.4813 24.0284 22.2363 23.5368 22.8665 22.9065C23.4968 22.2763 23.9884 21.5213 24.31 20.69C24.6644 19.728 24.8603 18.7148 24.89 17.69C25 16.32 25 15.9 25 12.5C25 9.1 25 8.68 24.94 7.35ZM22.68 17.56C22.6783 18.353 22.5326 19.1391 22.25 19.88C22.0425 20.4187 21.7244 20.908 21.3162 21.3162C20.908 21.7244 20.4187 22.0425 19.88 22.25C19.1377 22.5276 18.3525 22.6732 17.56 22.68C16.24 22.74 15.85 22.75 12.56 22.75C9.27 22.75 8.82 22.75 7.56 22.68C6.7675 22.6732 5.98231 22.5276 5.24 22.25C4.69742 22.0497 4.20572 21.7322 3.8 21.32C3.38958 20.9128 3.0723 20.4216 2.87 19.88C2.59237 19.1377 2.44684 18.3525 2.44 17.56C2.38 16.24 2.37 15.85 2.37 12.56C2.37 9.27 2.37 8.83 2.44 7.56C2.44684 6.7675 2.59237 5.98231 2.87 5.24C3.07021 4.6979 3.39174 4.20877 3.81 3.81C4.20877 3.39174 4.6979 3.07021 5.24 2.87C5.98399 2.59845 6.76811 2.45312 7.56 2.44C8.88 2.44 9.28 2.37 12.61 2.37C15.94 2.37 16.35 2.37 17.67 2.44C18.4621 2.45103 19.2466 2.59643 19.99 2.87C20.5321 3.07021 21.0212 3.39174 21.42 3.81C21.8352 4.20935 22.1533 4.69854 22.35 5.24C22.6315 5.98123 22.7772 6.76712 22.78 7.56C22.84 8.88 22.86 9.28 22.86 12.61C22.86 15.94 22.74 16.24 22.68 17.56Z" fill="#3E3F55"/>
<path d="M12.5001 6.08002C11.2308 6.08199 9.99051 6.4602 8.93606 7.16684C7.88161 7.87348 7.0603 8.87684 6.57592 10.0501C6.09154 11.2234 5.96583 12.5139 6.21467 13.7586C6.46352 15.0033 7.07575 16.1463 7.974 17.0432C8.87225 17.94 10.0162 18.5505 11.2613 18.7974C12.5064 19.0443 13.7967 18.9166 14.9692 18.4304C16.1417 17.9442 17.1438 17.1213 17.8488 16.0657C18.5538 15.0102 18.9301 13.7693 18.9301 12.5C18.9274 10.7964 18.2488 9.16348 17.0433 7.95978C15.8377 6.75609 14.2037 6.08002 12.5001 6.08002ZM12.5001 16.67C11.6753 16.67 10.8691 16.4255 10.1834 15.9672C9.49761 15.509 8.96313 14.8578 8.64751 14.0958C8.3319 13.3338 8.24932 12.4954 8.41022 11.6865C8.57112 10.8776 8.96827 10.1346 9.55146 9.55138C10.1346 8.9682 10.8777 8.57104 11.6866 8.41014C12.4955 8.24924 13.3339 8.33182 14.0959 8.64744C14.8578 8.96306 15.5091 9.49754 15.9673 10.1833C16.4255 10.869 16.6701 11.6753 16.6701 12.5C16.6701 13.606 16.2308 14.6666 15.4487 15.4487C14.6667 16.2307 13.606 16.67 12.5001 16.67Z" fill="#3E3F55"/>
<path d="M20.6799 5.83002C20.6799 6.12669 20.592 6.4167 20.4271 6.66337C20.2623 6.91005 20.028 7.10231 19.754 7.21584C19.4799 7.32937 19.1783 7.35907 18.8873 7.3012C18.5963 7.24332 18.3291 7.10046 18.1193 6.89068C17.9095 6.6809 17.7666 6.41362 17.7088 6.12265C17.6509 5.83168 17.6806 5.53008 17.7941 5.25599C17.9076 4.9819 18.0999 4.74763 18.3466 4.58281C18.5933 4.41799 18.8833 4.33002 19.1799 4.33002C19.5778 4.33002 19.9593 4.48805 20.2406 4.76936C20.5219 5.05066 20.6799 5.43219 20.6799 5.83002Z" fill="#3E3F55"/>
<path d="M24.94 32.35C24.9127 31.3249 24.7167 30.3114 24.36 29.35C24.0374 28.5193 23.5453 27.7649 22.9152 27.1348C22.2851 26.5047 21.5307 26.0126 20.7 25.69C19.7393 25.3308 18.7253 25.1348 17.7 25.11C16.32 25 15.9 25 12.5 25C9.1 25 8.69 25 7.35 25.07C6.32494 25.0973 5.31138 25.2933 4.35 25.65C3.51379 25.9691 2.75355 26.4596 2.11808 27.0899C1.48261 27.7202 0.985955 28.4764 0.66 29.31C0.300795 30.2707 0.104758 31.2847 0.08 32.31C0 33.68 0 34.11 0 37.5C0 40.89 0 41.32 0.07 42.65C0.0986013 43.6749 0.294517 44.6883 0.65 45.65C0.963736 46.4966 1.4586 47.2645 2.1 47.9C2.72467 48.5356 3.47824 49.03 4.31 49.35C5.27201 49.7044 6.2852 49.9003 7.31 49.93C8.68 50 9.11 50 12.5 50C15.89 50 16.32 50 17.65 49.93C18.6749 49.9014 19.6883 49.7055 20.65 49.35C21.4813 49.0284 22.2363 48.5368 22.8665 47.9065C23.4968 47.2763 23.9884 46.5213 24.31 45.69C24.6644 44.728 24.8603 43.7148 24.89 42.69C25 41.32 25 40.9 25 37.5C25 34.1 25 33.68 24.94 32.35ZM22.68 42.56C22.6783 43.353 22.5326 44.1391 22.25 44.88C22.0425 45.4187 21.7244 45.908 21.3162 46.3162C20.908 46.7244 20.4187 47.0425 19.88 47.25C19.1377 47.5276 18.3525 47.6732 17.56 47.68C16.24 47.74 15.85 47.75 12.56 47.75C9.27 47.75 8.82 47.75 7.56 47.68C6.7675 47.6732 5.98231 47.5276 5.24 47.25C4.69742 47.0497 4.20572 46.7322 3.8 46.32C3.38958 45.9128 3.0723 45.4216 2.87 44.88C2.59237 44.1377 2.44684 43.3525 2.44 42.56C2.38 41.24 2.37 40.85 2.37 37.51C2.37 34.17 2.37 33.78 2.44 32.51C2.44684 31.7175 2.59237 30.9323 2.87 30.19C3.07021 29.6479 3.39174 29.1588 3.81 28.76C4.20877 28.3417 4.6979 28.0202 5.24 27.82C5.98399 27.5485 6.76811 27.4031 7.56 27.39C8.88 27.34 9.28 27.32 12.61 27.32C15.94 27.32 16.35 27.32 17.67 27.39C18.4621 27.401 19.2466 27.5464 19.99 27.82C20.5256 28.0308 21.0119 28.3501 21.418 28.758C21.8242 29.1659 22.1415 29.6535 22.35 30.19C22.6315 30.9312 22.7772 31.7171 22.78 32.51C22.84 33.83 22.86 34.23 22.86 37.51C22.86 40.79 22.74 41.24 22.68 42.56Z" fill="#8D8E8F"/>
<path d="M12.5001 31.08C11.2308 31.082 9.99051 31.4602 8.93606 32.1668C7.88161 32.8735 7.0603 33.8768 6.57592 35.0501C6.09154 36.2234 5.96583 37.5139 6.21467 38.7586C6.46352 40.0033 7.07575 41.1463 7.974 42.0432C8.87225 42.94 10.0162 43.5505 11.2613 43.7974C12.5064 44.0443 13.7967 43.9166 14.9692 43.4304C16.1417 42.9442 17.1438 42.1213 17.8488 41.0657C18.5538 40.0102 18.9301 38.7693 18.9301 37.5C18.9274 35.7964 18.2488 34.1635 17.0433 32.9598C15.8377 31.7561 14.2037 31.08 12.5001 31.08ZM12.5001 41.67C11.6753 41.67 10.8691 41.4255 10.1834 40.9672C9.49761 40.509 8.96313 39.8578 8.64751 39.0958C8.3319 38.3338 8.24932 37.4954 8.41022 36.6865C8.57112 35.8776 8.96827 35.1346 9.55146 34.5514C10.1346 33.9682 10.8777 33.571 11.6866 33.4101C12.4955 33.2492 13.3339 33.3318 14.0959 33.6474C14.8578 33.9631 15.5091 34.4975 15.9673 35.1833C16.4255 35.869 16.6701 36.6753 16.6701 37.5C16.6701 38.606 16.2308 39.6666 15.4487 40.4487C14.6667 41.2307 13.606 41.67 12.5001 41.67Z" fill="#8D8E8F"/>
<path d="M20.6799 30.83C20.6799 31.1267 20.592 31.4167 20.4271 31.6634C20.2623 31.91 20.028 32.1023 19.754 32.2158C19.4799 32.3294 19.1783 32.3591 18.8873 32.3012C18.5963 32.2433 18.3291 32.1005 18.1193 31.8907C17.9095 31.6809 17.7666 31.4136 17.7088 31.1227C17.6509 30.8317 17.6806 30.5301 17.7941 30.256C17.9076 29.9819 18.0999 29.7476 18.3466 29.5828C18.5933 29.418 18.8833 29.33 19.1799 29.33C19.5778 29.33 19.9593 29.4881 20.2406 29.7694C20.5219 30.0507 20.6799 30.4322 20.6799 30.83Z" fill="#8D8E8F"/>
</g>
<defs>
<clipPath id="clip0_2072_138">
<rect width="25" height="50" fill="white"/>
</clipPath>
</defs>
</svg>

<svg id="Layer_1" data-name="Layer 1" xmlns="http://www.w3.org/2000/svg" viewBox="0 0 25 50"><defs><style>.cls-1{fill:#f2f2f2;}.cls-2{fill:#8d8e8f;}</style></defs><path class="cls-1" d="M24.94,7.35a9.34,9.34,0,0,0-.58-3A6.42,6.42,0,0,0,20.7.66a9.2,9.2,0,0,0-3-.58C16.32,0,15.9,0,12.5,0S8.69,0,7.35.07a9.34,9.34,0,0,0-3,.58A6.19,6.19,0,0,0,2.1,2.1,6.22,6.22,0,0,0,.66,4.31a9.2,9.2,0,0,0-.58,3C0,8.68,0,9.11,0,12.5s0,3.82.07,5.15a9.41,9.41,0,0,0,.58,3A6.2,6.2,0,0,0,2.1,22.9a6.24,6.24,0,0,0,2.21,1.45,9.47,9.47,0,0,0,3,.58C8.68,25,9.11,25,12.5,25s3.82,0,5.15-.07a9.41,9.41,0,0,0,3-.58,6.4,6.4,0,0,0,3.66-3.66,9.47,9.47,0,0,0,.58-3C25,16.32,25,15.9,25,12.5S25,8.68,24.94,7.35ZM22.68,17.56a6.55,6.55,0,0,1-.43,2.32,4.13,4.13,0,0,1-2.37,2.37,6.79,6.79,0,0,1-2.32.43c-1.32.06-1.71.07-5,.07s-3.74,0-5-.07a6.79,6.79,0,0,1-2.32-.43,3.93,3.93,0,0,1-1.44-.93,4,4,0,0,1-.93-1.44,6.79,6.79,0,0,1-.43-2.32c-.06-1.32-.07-1.71-.07-5s0-3.73.07-5a6.79,6.79,0,0,1,.43-2.32,3.79,3.79,0,0,1,.94-1.43,3.79,3.79,0,0,1,1.43-.94,7.11,7.11,0,0,1,2.32-.43c1.32,0,1.72-.07,5.05-.07s3.74,0,5.06.07a7,7,0,0,1,2.32.43,3.79,3.79,0,0,1,1.43.94,3.77,3.77,0,0,1,.93,1.43,6.6,6.6,0,0,1,.43,2.32c.06,1.32.08,1.72.08,5.05S22.74,16.24,22.68,17.56Z"/><path class="cls-1" d="M12.5,6.08a6.42,6.42,0,1,0,6.43,6.42A6.43,6.43,0,0,0,12.5,6.08Zm0,10.59a4.17,4.17,0,1,1,4.17-4.17A4.17,4.17,0,0,1,12.5,16.67Z"/><path class="cls-1" d="M20.68,5.83a1.5,1.5,0,1,1-1.5-1.5A1.5,1.5,0,0,1,20.68,5.83Z"/><path class="cls-2" d="M24.94,32.35a9.34,9.34,0,0,0-.58-3,6.42,6.42,0,0,0-3.66-3.66,9.2,9.2,0,0,0-3-.58C16.32,25,15.9,25,12.5,25s-3.81,0-5.15.07a9.34,9.34,0,0,0-3,.58A6.42,6.42,0,0,0,.66,29.31a9.2,9.2,0,0,0-.58,3C0,33.68,0,34.11,0,37.5s0,3.82.07,5.15a9.41,9.41,0,0,0,.58,3A6.2,6.2,0,0,0,2.1,47.9a6.24,6.24,0,0,0,2.21,1.45,9.47,9.47,0,0,0,3,.58C8.68,50,9.11,50,12.5,50s3.82,0,5.15-.07a9.41,9.41,0,0,0,3-.58,6.4,6.4,0,0,0,3.66-3.66,9.47,9.47,0,0,0,.58-3C25,41.32,25,40.9,25,37.5S25,33.68,24.94,32.35ZM22.68,42.56a6.55,6.55,0,0,1-.43,2.32,4.13,4.13,0,0,1-2.37,2.37,6.79,6.79,0,0,1-2.32.43c-1.32.06-1.71.07-5,.07s-3.74,0-5-.07a6.79,6.79,0,0,1-2.32-.43,3.93,3.93,0,0,1-1.44-.93,4,4,0,0,1-.93-1.44,6.79,6.79,0,0,1-.43-2.32c-.06-1.32-.07-1.71-.07-5.05s0-3.73.07-5a6.79,6.79,0,0,1,.43-2.32,3.79,3.79,0,0,1,.94-1.43,3.79,3.79,0,0,1,1.43-.94,7.11,7.11,0,0,1,2.32-.43c1.32-.05,1.72-.07,5.05-.07s3.74,0,5.06.07a7,7,0,0,1,2.32.43,4.17,4.17,0,0,1,2.36,2.37,6.6,6.6,0,0,1,.43,2.32c.06,1.32.08,1.72.08,5S22.74,41.24,22.68,42.56Z"/><path class="cls-2" d="M12.5,31.08a6.42,6.42,0,1,0,6.43,6.42A6.43,6.43,0,0,0,12.5,31.08Zm0,10.59a4.17,4.17,0,1,1,4.17-4.17A4.17,4.17,0,0,1,12.5,41.67Z"/><path class="cls-2" d="M20.68,30.83a1.5,1.5,0,1,1-1.5-1.5A1.5,1.5,0,0,1,20.68,30.83Z"/></svg>
